styles/icons/i18n.svg

<svg t="1683798392851" viewBox="0 0 1024 1024" version="1.1" xmlns="http://www.w3.org/2000/svg" p-id="38484">
    <path d="M496 0C222.048 0 0 222.048 0 496s222.048 496 496 496 496-222.048 496-496S769.952 0 496 0z m431.2 480H735.328c-1.76-70.88-14.368-138.592-36.736-200.576a522.688 522.688 0 0 0 119.552-70.304A429.856 429.856 0 0 1 927.2 480zM478.304 927.104c-53.184-44.288-97.792-101.792-130.432-168.576A495.904 495.904 0 0 1 480 736.8v190.368l-1.696-0.064z m35.328-862.208c60.352 50.24 109.6 117.536 142.912 196.032-45.632 15.584-94.112 24.64-144.576 26.24V64.8l1.664 0.096z m53.312 5.44a430.816 430.816 0 0 1 229.248 115.648 489.504 489.504 0 0 1-109.696 63.936c-29.12-69.024-69.984-130.048-119.552-179.584zM480 64.8v222.368a495.744 495.744 0 0 1-144.576-26.24c33.312-78.496 82.56-145.792 142.912-196.032L480 64.8zM305.472 249.952a490.72 490.72 0 0 1-109.664-63.936A430.72 430.72 0 0 1 425.056 70.368c-49.6 49.504-90.432 110.528-119.584 179.584z m17.888 40.48c49.344 17.12 101.92 27.104 156.64 28.768V480H288.672c1.728-67.008 13.6-131.04 34.688-189.568zM480 512v192.8a525.152 525.152 0 0 0-145.248 24.608A601.12 601.12 0 0 1 288.672 512H480z m-54.944 409.664A429.792 429.792 0 0 1 215.616 824a486.368 486.368 0 0 1 102.016-54.4 554.144 554.144 0 0 0 107.424 152.064zM512 927.2V736.832c45.824 1.472 90.24 8.64 132.128 21.728-32.672 66.784-77.248 124.288-130.432 168.576a31.2 31.2 0 0 0-1.696 0.064z m162.368-157.6A490.24 490.24 0 0 1 776.384 824a430.08 430.08 0 0 1-209.44 97.664A554.816 554.816 0 0 0 674.368 769.6z m-17.12-40.192A525.568 525.568 0 0 0 512 704.8V512h191.328a601.792 601.792 0 0 1-46.08 217.408zM512 480V319.2a526.08 526.08 0 0 0 156.64-28.736c21.056 58.528 32.928 122.56 34.688 189.568H512zM173.888 209.12a523.2 523.2 0 0 0 119.52 70.304C271.04 341.408 258.432 409.12 256.672 480H64.8a429.728 429.728 0 0 1 109.088-270.88zM64.8 512h191.872a631.168 631.168 0 0 0 48.096 228.384 519.36 519.36 0 0 0-113.216 61.792A430.816 430.816 0 0 1 64.8 512z m735.648 290.144A520.192 520.192 0 0 0 687.2 740.352a631.2 631.2 0 0 0 48.128-228.384H927.2a430.848 430.848 0 0 1-126.752 290.176z"
          p-id="38485"></path>
</svg>

<?xml version="1.0" encoding="UTF-8"?>
<svg id="uuid-9a98ec57-8254-48bd-a996-8af308b4ba75" data-name="图层 1" xmlns="http://www.w3.org/2000/svg" viewBox="0 0 992 992">
  <path d="m496,0C222.05,0,0,222.05,0,496s222.05,496,496,496,496-222.05,496-496S769.95,0,496,0Zm431.2,480h-191.87c-1.76-70.88-14.37-138.59-36.74-200.58,42.8-18.02,83-41.66,119.55-70.3,66.85,74.8,105.43,170.63,109.06,270.88Zm-448.9,447.1c-53.18-44.29-97.79-101.79-130.43-168.58,42.86-13.18,87.31-20.49,132.13-21.73v190.37l-1.7-.06h0Zm35.33-862.21c60.35,50.24,109.6,117.54,142.91,196.03-45.63,15.58-94.11,24.64-144.58,26.24V64.8s1.66.1,1.66.1Zm53.31,5.44c86.39,14.35,166.36,54.69,229.25,115.65-33.63,25.98-70.51,47.48-109.7,63.94-29.12-69.02-69.98-130.05-119.55-179.58h0Zm-86.94-5.54v222.37c-49.23-1.52-97.95-10.36-144.58-26.24,33.31-78.5,82.56-145.79,142.91-196.03l1.66-.1Zm-174.53,185.15c-39.17-16.47-76.03-37.97-109.66-63.94,62.88-60.96,142.85-101.3,229.25-115.65-49.6,49.5-90.43,110.53-119.58,179.58Zm17.89,40.48c49.34,17.12,101.92,27.1,156.64,28.77v160.8h-191.33c1.73-67.01,13.6-131.04,34.69-189.57Zm156.64,221.57v192.8c-49.33,1.34-98.23,9.62-145.25,24.61-28.74-68.98-44.37-142.7-46.08-217.41h191.33Zm-54.94,409.66c-77.42-12.82-149.85-46.6-209.44-97.66,31.72-22.12,65.97-40.39,102.02-54.4,26.98,56.38,63.3,107.8,107.42,152.06h0Zm86.94,5.54v-190.37c45.82,1.47,90.24,8.64,132.13,21.73-32.67,66.78-77.25,124.29-130.43,168.58-.57,0-1.13.03-1.7.06h0Zm162.37-157.6c36.03,14.05,70.28,32.31,102.02,54.4-59.6,51.05-132.02,84.83-209.44,97.66,44.12-44.28,80.44-95.69,107.42-152.06Zm-17.12-40.19c-47.02-14.98-95.92-23.27-145.25-24.61v-192.8h191.33c-1.73,74.7-17.36,148.43-46.08,217.41h0Zm-145.25-249.41v-160.8c53.37-1.57,106.19-11.26,156.64-28.74,21.06,58.53,32.93,122.56,34.69,189.57h-191.33v-.03ZM173.89,209.12c36.54,28.63,76.74,52.28,119.52,70.3-22.37,61.98-34.98,129.7-36.74,200.58H64.8c3.63-100.26,42.22-196.09,109.09-270.88Zm-109.09,302.88h191.87c1.69,78.46,18.01,155.91,48.1,228.38-40.16,15.81-78.19,36.57-113.22,61.79-77.55-77.13-122.87-180.87-126.75-290.18Zm735.65,290.14c-35.04-25.22-73.08-45.97-113.25-61.79,30.1-72.47,46.42-149.93,48.13-228.38h191.87c-3.89,109.31-49.2,213.05-126.75,290.18h0Z"/>
</svg>
